src/images/badges/merged-pr-5.svg

<svg width="80" height="20" viewBox="0 0 80 20" fill="none" xmlns="http://www.w3.org/2000/svg">
<path d="M79 10C79 5.02944 74.9706 1 70 1H10C5.02944 1 1 5.02944 1 10C1 14.9706 5.02944 19 10 19H70C74.9706 19 79 14.9706 79 10Z" fill="#41E847"/>
<path d="M47.7843 4.83251C47.497 4.72802 47.0529 4.64966 46.5827 4.64966C45.1199 4.64966 44.3362 5.5378 44.3624 7.36634V13.7401C44.3624 15.1245 43.8922 15.6992 42.9518 15.6992C42.6906 15.6992 42.4555 15.647 42.142 15.5686L42.096 15.5569C41.9893 15.5294 41.8371 15.4902 41.724 15.4902C41.4889 15.4902 41.3322 15.6209 41.3322 15.856C41.3322 16.0911 41.4889 16.2217 41.724 16.3C42.0114 16.4045 42.4555 16.4829 42.9257 16.4829C44.3624 16.4829 45.146 15.6209 45.146 13.7923V7.39246C45.146 6.008 45.6162 5.43332 46.5566 5.43332C46.8178 5.43332 47.0529 5.48556 47.3664 5.56392L47.4119 5.57553C47.5185 5.603 47.671 5.64229 47.7843 5.64229C48.0194 5.64229 48.1762 5.51168 48.1762 5.27658C48.1762 5.04149 48.0194 4.91088 47.7843 4.83251Z" fill="black"/>
<path d="M5.31012 6.13865V10.8406C5.31012 12.6691 6.14602 13.7924 7.92231 13.8185C9.6986 13.8185 10.5606 12.6952 10.5606 10.8406V6.13865C10.5606 5.82519 10.4039 5.66846 10.1427 5.66846C9.88145 5.66846 9.72472 5.85131 9.72472 6.13865V10.8406C9.72472 12.4079 9.04555 13.0348 7.92231 13.0348C6.82519 13.0348 6.14602 12.4079 6.14602 10.8406V6.13865C6.14602 5.82519 5.96317 5.66846 5.72807 5.66846C5.46685 5.66846 5.31012 5.85131 5.31012 6.13865Z" fill="black"/>
<path fill-rule="evenodd" clip-rule="evenodd" d="M12.2585 13.0609C12.2585 13.2437 12.363 13.4266 12.5459 13.4266C12.6504 13.4266 12.8332 13.3482 13.0161 13.2176L14.6879 12.3556L16.3597 13.2176C16.5948 13.3482 16.7515 13.4266 16.8821 13.4266C17.065 13.4266 17.1695 13.2437 17.1695 13.0609C17.1695 12.9914 17.1579 12.9218 17.1425 12.8292C17.1347 12.7826 17.1259 12.7302 17.1172 12.669L16.8038 10.8144L18.136 9.50828C18.3972 9.27318 18.5017 9.11645 18.5017 8.98584C18.5017 8.7458 18.1709 8.68223 17.9145 8.63295C17.892 8.62864 17.8696 8.62433 17.8486 8.62013L15.994 8.35891L15.1842 6.68711C15.0013 6.3214 14.8969 6.16467 14.714 6.16467C14.5312 6.16467 14.4267 6.3214 14.2438 6.68711L13.434 8.35891L11.5794 8.62013L11.5479 8.62634L11.5134 8.63297C11.2571 8.68224 10.9263 8.74584 10.9263 8.98584C10.9263 9.11645 11.0569 9.27318 11.292 9.50828L12.6243 10.8144L12.3108 12.669C12.3021 12.7301 12.2933 12.7825 12.2856 12.8291C12.2701 12.9217 12.2585 12.9914 12.2585 13.0609ZM17.4829 9.24706L16.0462 10.5793L16.4119 12.4601L14.714 11.5458L13.0161 12.4601L13.4079 10.5793L11.9712 9.24706L13.9303 9.01196L14.7401 7.26179L15.5499 9.01196L17.4829 9.24706Z" fill="black"/>
<path d="M19.0502 13.5573C19.0502 13.3744 19.207 13.1916 19.4159 13.1916C19.4551 13.1916 19.5139 13.1981 19.5727 13.2046C19.6314 13.2112 19.6902 13.2177 19.7294 13.2177C20.1735 13.2177 20.6698 12.643 20.9571 12.2512C20.3824 11.6242 19.7294 10.8145 19.7294 9.95244C19.7294 8.93368 20.5131 8.20227 21.5841 8.20227C22.6551 8.20227 23.4648 8.90756 23.4648 9.92632C23.4648 10.8145 22.8379 11.5981 22.2371 12.225C22.5244 12.643 23.0469 13.1916 23.4648 13.1916C23.5208 13.1916 23.5843 13.1841 23.6432 13.1771C23.6943 13.171 23.7419 13.1654 23.7783 13.1654C23.9873 13.1654 24.144 13.3483 24.144 13.5311C24.144 13.8446 23.8567 13.9491 23.5171 13.9491C22.6028 13.9491 22.0543 13.3744 21.6102 12.7736C21.1661 13.3744 20.6175 13.9491 19.7033 13.9491C19.3637 13.9752 19.0502 13.8707 19.0502 13.5573Z" fill="black"/>
<path fill-rule="evenodd" clip-rule="evenodd" d="M25.9464 13.0609C25.9464 13.2437 26.0509 13.4266 26.2338 13.4266C26.3382 13.4266 26.5211 13.3482 26.7039 13.2176L28.3758 12.3556L30.0476 13.2176C30.2826 13.3482 30.4394 13.4266 30.57 13.4266C30.7528 13.4266 30.8573 13.2437 30.8573 13.0609C30.8573 12.9912 30.8457 12.9216 30.8302 12.8287C30.8225 12.7822 30.8138 12.73 30.8051 12.669L30.4916 10.8144L31.8238 9.50828C32.0851 9.27318 32.1895 9.11645 32.1895 8.98584C32.1895 8.73736 31.8586 8.67797 31.579 8.6278L31.5365 8.62013L29.6818 8.35891L28.8721 6.68711C28.6892 6.3214 28.5847 6.16467 28.4019 6.16467C28.219 6.16467 28.1145 6.3214 27.9317 6.68711L27.1219 8.35891L25.2672 8.62013C25.246 8.62437 25.2239 8.62861 25.2013 8.63296C24.945 8.68224 24.6142 8.74582 24.6142 8.98584C24.6142 9.11645 24.7187 9.27318 24.9799 9.50828L26.3121 10.8144L25.9987 12.669C25.99 12.7297 25.9813 12.7818 25.9736 12.8282C25.958 12.9213 25.9464 12.9911 25.9464 13.0609ZM31.1708 9.24706L29.7341 10.5793L30.1259 12.4601L28.428 11.5458L26.7301 12.4601L27.1219 10.5793L25.6852 9.24706L27.6182 9.01196L28.428 7.26179L29.2378 9.01196L31.1708 9.24706Z" fill="black"/>
<path d="M32.6859 10.8406V6.13865C32.6859 5.85131 32.8426 5.66846 33.1038 5.66846C33.3389 5.66846 33.5218 5.82519 33.5218 6.13865V10.8406C33.5218 12.4079 34.2009 13.0348 35.298 13.0348C36.4213 13.0348 37.1005 12.4079 37.1005 10.8406V6.13865C37.1005 5.85131 37.2572 5.66846 37.5184 5.66846C37.7796 5.66846 37.9364 5.82519 37.9364 6.13865V10.8406C37.9364 12.6952 37.0743 13.8185 35.298 13.8185C33.5479 13.7924 32.6859 12.6691 32.6859 10.8406Z" fill="black"/>
<path d="M48.4374 10.501C48.4374 10.2397 48.6202 10.1091 48.8553 10.1091H54.3932C54.6283 10.1091 54.8111 10.2397 54.8111 10.501C54.8111 10.7622 54.6021 10.8928 54.3932 10.8928H48.8553C48.6202 10.8667 48.4374 10.7361 48.4374 10.501Z" fill="black"/>
<path fill-rule="evenodd" clip-rule="evenodd" d="M57.5017 13.0609C57.5017 13.2437 57.6061 13.4266 57.789 13.4266C57.9196 13.4266 58.0763 13.3482 58.2853 13.2176L59.9571 12.3556L61.6289 13.2176C61.864 13.3482 62.0207 13.4266 62.1514 13.4266C62.3342 13.4266 62.4387 13.2437 62.4387 13.0609C62.4387 12.9911 62.4271 12.9213 62.4115 12.8282C62.4038 12.782 62.3951 12.7296 62.3864 12.669L62.073 10.8144L63.4052 9.50828C63.6664 9.27318 63.7709 9.11645 63.7709 8.98584C63.7709 8.73736 63.44 8.67797 63.1604 8.6278L63.1179 8.62013L61.2632 8.35891L60.4534 6.68711C60.2967 6.3214 60.1922 6.16467 59.9832 6.16467C59.7743 6.16467 59.6959 6.3214 59.513 6.68711L58.6771 8.35891L56.8225 8.62013L56.7963 8.6253L56.7565 8.63297C56.5002 8.68224 56.1694 8.74584 56.1694 8.98584C56.1694 9.11645 56.2739 9.27318 56.5351 9.50828L57.8674 10.8144L57.5539 12.669C57.5452 12.73 57.5365 12.7822 57.5288 12.8287C57.5133 12.9216 57.5017 12.9912 57.5017 13.0609ZM62.726 9.24706L61.2893 10.5793L61.6812 12.4601L59.9832 11.5458L58.2853 12.4601L58.6771 10.5793L57.2404 9.24706L59.1735 9.01196L59.9832 7.26179L60.793 9.01196L62.726 9.24706Z" fill="black"/>
<path fill-rule="evenodd" clip-rule="evenodd" d="M68.8908 6.03418C71.1112 6.03418 72.783 7.7321 72.783 9.90022C72.783 12.0683 71.1112 13.7663 68.8908 13.7663C66.6705 13.7663 65.0248 12.0683 65.0248 9.90022C65.0248 7.7321 66.6705 6.03418 68.8908 6.03418ZM70.6149 10.5271C70.6149 9.66512 69.9096 9.24717 69.1259 9.24717C68.7602 9.24717 68.4467 9.29942 68.1333 9.45615L68.29 8.51576C68.4626 8.51576 68.9122 8.52368 69.3164 8.53079C69.6463 8.5366 69.9463 8.54188 70.0402 8.54188C70.3014 8.54188 70.4581 8.41127 70.4581 8.17618C70.4581 7.9672 70.2753 7.86271 70.0141 7.86271H67.9766C67.7153 7.86271 67.637 7.99332 67.6108 8.17618L67.4019 9.66512V9.82186C67.4019 10.0308 67.5325 10.1614 67.7153 10.1614C67.8459 10.1614 67.9766 10.1092 68.1072 10.0308C68.1336 10.0209 68.1612 10.0102 68.1901 9.99899C68.3895 9.92156 68.6464 9.82186 68.9431 9.82186C69.4916 9.82186 69.8573 10.0831 69.8573 10.5271C69.8573 10.9973 69.4655 11.2847 68.9169 11.2847C68.5512 11.2847 68.1594 11.1802 67.8982 10.919C67.7676 10.7884 67.637 10.7361 67.5064 10.7361C67.3235 10.7361 67.1668 10.8667 67.1668 11.0496C67.1668 11.1802 67.1929 11.2847 67.3758 11.4153C67.637 11.6504 68.2117 11.9116 68.9169 11.9116C69.9357 11.9377 70.6149 11.363 70.6149 10.5271Z" fill="black"/>
<path fill-rule="evenodd" clip-rule="evenodd" d="M73.2532 6.24311C73.2532 7.05289 73.854 7.52308 74.6115 7.52308C75.369 7.52308 75.996 7.05289 75.996 6.24311C75.996 5.43333 75.369 4.96313 74.6115 4.96313C73.8801 4.96313 73.2532 5.43333 73.2532 6.24311ZM73.8801 6.24311C73.8801 5.85128 74.2197 5.53782 74.6115 5.53782C75.0295 5.53782 75.3429 5.85128 75.3429 6.24311C75.3429 6.63494 75.0295 6.9484 74.6115 6.9484C74.1936 6.9484 73.8801 6.63494 73.8801 6.24311Z" fill="black"/>
</svg>

<svg xmlns="http://www.w3.org/2000/svg" width="80" height="20" fill="none"><path fill="#41E847" d="M79 10a9 9 0 0 0-9-9H10a9 9 0 0 0 0 18h60a9 9 0 0 0 9-9Z"/><path fill="#000" d="M47.784 4.833c-.287-.105-.731-.183-1.201-.183-1.463 0-2.247.888-2.22 2.716v6.374c0 1.384-.47 1.96-1.411 1.96-.261 0-.496-.053-.81-.131l-.046-.012a1.694 1.694 0 0 0-.372-.067c-.235 0-.392.13-.392.366 0 .235.157.366.392.444.287.104.732.183 1.202.183 1.436 0 2.22-.862 2.22-2.69v-6.4c0-1.385.47-1.96 1.41-1.96.262 0 .497.053.81.13l.046.013c.107.027.259.066.372.066.235 0 .392-.13.392-.365 0-.236-.157-.366-.392-.444ZM5.31 6.139v4.702c0 1.828.836 2.951 2.612 2.978 1.777 0 2.639-1.124 2.639-2.978V6.139c0-.314-.157-.47-.418-.47-.262 0-.418.182-.418.47v4.702c0 1.567-.68 2.194-1.803 2.194-1.097 0-1.776-.627-1.776-2.194V6.139c0-.314-.183-.47-.418-.47-.261 0-.418.182-.418.47Z"/><path fill="#000" fill-rule="evenodd" d="M12.258 13.06c0 .184.105.367.288.367.104 0 .287-.079.47-.21l1.672-.861 1.672.862c.235.13.392.209.522.209.183 0 .287-.183.287-.366 0-.07-.011-.14-.027-.232l-.025-.16-.313-1.855 1.332-1.306c.261-.235.366-.392.366-.522 0-.24-.331-.304-.587-.353a8.416 8.416 0 0 1-.066-.013l-1.855-.261-.81-1.672c-.183-.366-.287-.522-.47-.522s-.287.156-.47.522l-.81 1.672-1.855.261-.031.006-.035.007c-.256.05-.587.113-.587.353 0 .13.13.287.366.522l1.332 1.306-.313 1.855-.025.16a1.421 1.421 0 0 0-.027.232Zm5.225-3.813-1.437 1.332.366 1.881-1.698-.914-1.698.914.392-1.88-1.437-1.333 1.96-.235.81-1.75.809 1.75 1.933.235Z" clip-rule="evenodd"/><path fill="#000" d="M19.05 13.557c0-.183.157-.365.366-.365.04 0 .098.006.157.013.058.006.117.013.156.013.445 0 .94-.575 1.228-.967-.575-.627-1.228-1.436-1.228-2.299 0-1.018.784-1.75 1.855-1.75s1.88.706 1.88 1.724c0 .889-.626 1.672-1.227 2.299.287.418.81.967 1.228.967.056 0 .12-.008.178-.015.051-.006.099-.012.135-.012.21 0 .366.183.366.366 0 .314-.287.418-.627.418-.914 0-1.463-.575-1.907-1.175-.444.6-.992 1.175-1.907 1.175-.34.026-.653-.078-.653-.392Z"/><path fill="#000" fill-rule="evenodd" d="M25.946 13.06c0 .184.105.367.288.367.104 0 .287-.079.47-.21l1.672-.861 1.672.862c.235.13.391.209.522.209.183 0 .287-.183.287-.366 0-.07-.011-.14-.027-.232l-.025-.16-.313-1.855 1.332-1.306c.261-.235.366-.392.366-.522 0-.249-.331-.308-.611-.358l-.043-.008-1.854-.261-.81-1.672c-.183-.366-.287-.522-.47-.522s-.288.156-.47.522l-.81 1.672-1.855.261-.066.013c-.256.05-.587.113-.587.353 0 .13.105.287.366.522l1.332 1.306L26 12.67l-.025.16a1.424 1.424 0 0 0-.028.232Zm5.225-3.813-1.437 1.332.392 1.881-1.698-.914-1.698.914.392-1.88-1.437-1.333 1.933-.235.81-1.75.81 1.75 1.933.235Z" clip-rule="evenodd"/><path fill="#000" d="M32.686 10.84V6.14c0-.288.157-.47.418-.47.235 0 .418.156.418.47v4.702c0 1.567.679 2.194 1.776 2.194 1.123 0 1.802-.627 1.802-2.194V6.139c0-.288.157-.47.418-.47.262 0 .418.156.418.47v4.702c0 1.854-.862 2.978-2.638 2.978-1.75-.027-2.612-1.15-2.612-2.978ZM48.437 10.501c0-.261.183-.392.418-.392h5.538c.235 0 .418.13.418.392 0 .261-.209.392-.418.392h-5.538c-.235-.026-.418-.157-.418-.392Z"/><path fill="#000" fill-rule="evenodd" d="M57.502 13.06c0 .184.104.367.287.367.13 0 .287-.079.496-.21l1.672-.861 1.672.862c.235.13.392.209.522.209.183 0 .288-.183.288-.366 0-.07-.012-.14-.028-.233a6.87 6.87 0 0 1-.025-.159l-.313-1.855 1.332-1.306c.261-.235.366-.392.366-.522 0-.249-.331-.308-.61-.358l-.043-.008-1.855-.261-.81-1.672c-.156-.366-.26-.522-.47-.522-.209 0-.287.156-.47.522l-.836 1.672-1.855.261-.026.005-.04.008c-.256.05-.587.113-.587.353 0 .13.105.287.366.522l1.332 1.306-.313 1.855-.025.16a1.427 1.427 0 0 0-.027.232Zm5.224-3.813-1.437 1.332.392 1.881-1.698-.914-1.698.914.392-1.88-1.437-1.333 1.933-.235.81-1.75.81 1.75 1.933.235ZM68.89 6.034c2.221 0 3.893 1.698 3.893 3.866s-1.672 3.866-3.892 3.866c-2.22 0-3.866-1.698-3.866-3.866s1.645-3.866 3.866-3.866Zm1.725 4.493c0-.862-.705-1.28-1.49-1.28-.365 0-.678.052-.992.21l.157-.941c.173 0 .622.008 1.026.015.33.006.63.01.724.01.261 0 .418-.13.418-.365 0-.209-.183-.313-.444-.313h-2.037c-.262 0-.34.13-.366.313l-.21 1.49v.156c0 .209.132.34.314.34.13 0 .262-.053.392-.131l.083-.032c.2-.077.456-.177.753-.177.549 0 .914.261.914.705 0 .47-.391.758-.94.758-.366 0-.758-.105-1.019-.366-.13-.13-.261-.183-.392-.183-.183 0-.34.13-.34.314 0 .13.027.235.21.365.261.235.836.497 1.54.497 1.02.026 1.699-.549 1.699-1.385ZM73.253 6.243c0 .81.601 1.28 1.359 1.28.757 0 1.384-.47 1.384-1.28s-.627-1.28-1.384-1.28c-.732 0-1.359.47-1.359 1.28Zm.627 0c0-.392.34-.705.732-.705.418 0 .73.313.73.705 0 .392-.313.705-.73.705-.418 0-.732-.313-.732-.705Z" clip-rule="evenodd"/></svg>
